src/svgs/rulers.svg

<svg xmlns="http://www.w3.org/2000/svg" viewBox="0 0 24 24" width="512" height="512" aria-labelledby="jsrulers-desc jsrulers-title"><title id="jsrulers-title">Rulers Icon</title><desc id="jsrulers-desc">A picture depicting different measuring tools.</desc><path d="M8 16V2H2v20h20v-6zm-2 1H3v-1h3zm0-3H3v-1h3zm0-3H3v-1h3zm0-3H3V7h3zm0-3H3V4h3zm2 16H7v-3h1zm3 0h-1v-3h1zm3 0h-1v-3h1zm3 0h-1v-3h1zm3 0h-1v-3h1zm-2-7h-8V6h8zm4-12v12h-2V4H10V2z"/></svg>

<svg xmlns="http://www.w3.org/2000/svg" viewBox="0 0 24 24"><path d="M8,16V2H2V22H22V16ZM6,17H3V16H6Zm0-3H3V13H6Zm0-3H3V10H6ZM6,8H3V7H6ZM6,5H3V4H6ZM8,21H7V18H8Zm3,0H10V18h1Zm3,0H13V18h1Zm3,0H16V18h1Zm3,0H19V18h1Zm-2-7H10V6h8ZM22,2V14H20V4H10V2Z"/></svg>
